SVG/Left.svg

<svg height="46" viewBox="0 0 34 46" width="34" xmlns="http://www.w3.org/2000/svg" xmlns:xlink="http://www.w3.org/1999/xlink"><filter id="a" height="167.5%" width="198.2%" x="-49.1%" y="-33.8%"><feOffset dx="0" dy="1" in="SourceAlpha" result="shadowOffsetOuter1"/><feGaussianBlur in="shadowOffsetOuter1" result="shadowBlurOuter1" stdDeviation=".9"/><feColorMatrix in="shadowBlurOuter1" result="shadowMatrixOuter1" type="matrix" values="0 0 0 0 0   0 0 0 0 0   0 0 0 0 0  0 0 0 0.65 0"/><feMerge><feMergeNode in="shadowMatrixOuter1"/><feMergeNode in="SourceGraphic"/></feMerge></filter><g fill="none" filter="url(#a)" transform="translate(4 5)"><path d="m7.02 0v6.01h-1.02v-3.87l-6 5.87 6 5.89v-3.91h1.02v6.01h3.98v-16z" fill="#fff"/><path d="m8 1v6h-3.02v-2.24l-3.32 3.25 3.32 3.22v-2.25h3.02v6h1.98v-13.98z" fill="#000"/></g></svg>

<svg width="24" height="24" viewBox="0 0 24 24" xmlns="http://www.w3.org/2000/svg"><defs><filter x="-29.1%" y="-13.8%" width="158.2%" height="140%" filterUnits="objectBoundingBox" id="a"><feOffset dy="1" in="SourceAlpha" result="shadowOffsetOuter1"/><feGaussianBlur stdDeviation=".9" in="shadowOffsetOuter1" result="shadowBlurOuter1"/><feColorMatrix values="0 0 0 0 0 0 0 0 0 0 0 0 0 0 0 0 0 0 0.65 0" in="shadowBlurOuter1" result="shadowMatrixOuter1"/><feMerge><feMergeNode in="shadowMatrixOuter1"/><feMergeNode in="SourceGraphic"/></feMerge></filter></defs><g filter="url(#a)" transform="translate(3 4)" fill="none"><path fill="#FFF" d="M7.02 0v6.01H6V2.14L0 8.01l6 5.89V9.99h1.02V16H11V0z"/><path fill="#000" d="M8 1v6H4.98V4.76L1.66 8.01l3.32 3.22V8.98H8v6h1.98V1z"/></g></svg>
